X: 28687
T: Mwynen Cynwyd
R: jig
M: 6/8
K: Gmajor
d|B2G G2G|GBd dcB|e2A A2A|cde edc|
B2G G2G|GBd dcB|cBc Adc|B2G G2:|
|:B/d/|e2g e2c|e2g ece|d2g d2B|d2g dBG|
d2A A2A|c2d edc|Bcd efg|BcA G2:|

